images/logoH.svg

<?xml version="1.0" standalone="no"?><!DOCTYPE svg PUBLIC "-//W3C//DTD SVG 1.1//EN" "http://www.w3.org/Graphics/SVG/1.1/DTD/svg11.dtd"><svg t="1564484363731" class="icon" viewBox="0 0 1024 1024" version="1.1" xmlns="http://www.w3.org/2000/svg" p-id="1708" width="200" height="200" xmlns:xlink="http://www.w3.org/1999/xlink"><defs><style type="text/css"></style></defs><path d="M811.707317 1024h-599.414634C94.907317 1024 0 929.092683 0 811.707317v-599.414634C0 94.907317 94.907317 0 212.292683 0h599.414634C929.092683 0 1024 94.907317 1024 212.292683v599.414634c0 117.385366-94.907317 212.292683-212.292683 212.292683zM212.292683 24.97561C109.892683 24.97561 24.97561 109.892683 24.97561 212.292683v599.414634C24.97561 914.107317 109.892683 999.02439 212.292683 999.02439h599.414634c102.4 0 187.317073-84.917073 187.317073-187.317073v-599.414634C999.02439 109.892683 914.107317 24.97561 811.707317 24.97561h-599.414634z" p-id="1709" fill="#0304fc"></path><path d="M152.35122 949.073171l34.965853-54.946342V89.912195h174.829268v339.668293H699.317073V89.912195h174.829268V949.073171h-174.829268V574.439024H362.146341v374.634147H224.780488z" p-id="1710" fill="#0304fc"></path></svg>

<svg class="icon" viewBox="0 0 1024 1024" xmlns="http://www.w3.org/2000/svg" width="200" height="200"><defs><style/></defs><path d="M811.707 1024H212.293C94.907 1024 0 929.093 0 811.707V212.293C0 94.907 94.907 0 212.293 0h599.414C929.093 0 1024 94.907 1024 212.293v599.414C1024 929.093 929.093 1024 811.707 1024zM212.293 24.976c-102.4 0-187.317 84.917-187.317 187.317v599.414c0 102.4 84.917 187.317 187.317 187.317h599.414c102.4 0 187.317-84.917 187.317-187.317V212.293c0-102.4-84.917-187.317-187.317-187.317H212.293z" fill="#0304fc"/><path d="M152.351 949.073l34.966-54.946V89.912h174.83V429.58h337.17V89.912h174.83v859.161h-174.83V574.44h-337.17v374.634H224.78z" fill="#0304fc"/></svg>
